assets/img/img-pages/icon-property/eye1.svg

<svg width="64" height="64" viewBox="0 0 64 64" fill="none" xmlns="http://www.w3.org/2000/svg">
<g clip-path="url(#clip0)">
<path d="M25.3836 32.3661C24.8961 31.8773 24.1036 31.8773 23.6161 32.3661C23.1273 32.8536 23.1273 33.6461 23.6161 34.1336C24.1036 34.6223 24.8961 34.6223 25.3836 34.1336C25.8723 33.6461 25.8723 32.8536 25.3836 32.3661Z" fill="#14213D"/>
<path d="M32 34.5C29.9323 34.5 28.25 36.1823 28.25 38.25C28.25 40.3177 29.9323 42 32 42C34.0677 42 35.75 40.3177 35.75 38.25C35.75 36.1823 34.0677 34.5 32 34.5ZM32 39.5C31.3108 39.5 30.75 38.9392 30.75 38.25C30.75 37.5608 31.3108 37 32 37C32.6892 37 33.25 37.5608 33.25 38.25C33.25 38.9392 32.6892 39.5 32 39.5Z" fill="#14213D"/>
<path d="M32 28.25C30.6027 28.25 29.2516 28.5324 27.9845 29.0894C27.3525 29.3672 27.0654 30.1047 27.3431 30.7367C27.6209 31.3687 28.3585 31.6557 28.9905 31.3781C29.9386 30.9614 30.9513 30.75 32 30.75C36.1355 30.75 39.5 34.1145 39.5 38.25C39.5 42.3855 36.1355 45.75 32 45.75C27.8645 45.75 24.5 42.3855 24.5 38.25C24.5 38.2072 24.4999 38.1655 24.5009 38.1227C24.5169 37.4326 23.9704 36.8601 23.2803 36.8441C22.589 36.8269 22.0176 37.3745 22.0016 38.0648C22.0001 38.127 22 38.1877 22 38.25C22 43.764 26.486 48.25 32 48.25C37.514 48.25 42 43.764 42 38.25C42 32.736 37.514 28.25 32 28.25Z" fill="#14213D"/>
<path d="M32 9.5C31.3096 9.5 30.75 10.0596 30.75 10.75V18.25C30.75 18.9404 31.3096 19.5 32 19.5C32.6904 19.5 33.25 18.9404 33.25 18.25V10.75C33.25 10.0596 32.6904 9.5 32 9.5Z" fill="#14213D"/>
<path d="M18.0351 18.7672L12.7326 13.4647C12.2445 12.9766 11.453 12.9766 10.9647 13.4647C10.4766 13.9529 10.4766 14.7444 10.9647 15.2326L16.2672 20.5351C16.7554 21.0232 17.547 21.0234 18.0351 20.5351C18.5232 20.047 18.5232 19.2555 18.0351 18.7672Z" fill="#14213D"/>
<path d="M53.0351 13.4647C52.547 12.9766 51.7555 12.9766 51.2672 13.4647L45.9647 18.7672C45.4766 19.2554 45.4766 20.0469 45.9647 20.5351C46.4527 21.0232 47.2444 21.0234 47.7326 20.5351L53.0351 15.2326C53.5232 14.7445 53.5232 13.953 53.0351 13.4647Z" fill="#14213D"/>
<path d="M63.6869 38.4637C55.7462 29.4739 43.9557 22 32 22C20.0426 22 8.25224 29.4757 0.313114 38.4637C-0.143886 38.9812 -0.0948861 39.7711 0.422489 40.2281C0.939989 40.6851 1.72999 40.6361 2.18686 40.1188C2.45324 39.8171 2.72611 39.5166 3.00249 39.218C9.17937 48.551 20.3766 54.5 32 54.5C43.6234 54.5 54.8206 48.551 60.9975 39.218C61.2739 39.5167 61.5467 39.8173 61.8131 40.1188C62.2686 40.6345 63.0585 40.6865 63.5775 40.2281C64.0949 39.7711 64.1439 38.9811 63.6869 38.4637ZM32 52C21.0106 52 10.4411 46.2901 4.78886 37.3775C9.24236 33.0136 19.5326 24.5 32 24.5C44.4675 24.5 54.7576 33.0136 59.2111 37.3774C53.5589 46.2901 42.9894 52 32 52Z" fill="#14213D"/>
</g>
<defs>
<clipPath id="clip0">
<rect width="64" height="64" fill="white"/>
</clipPath>
</defs>
</svg>

<svg width="64" height="64" fill="none" xmlns="http://www.w3.org/2000/svg"><g clip-path="url(#a)" fill="#14213D"><path d="M25.384 32.366a1.249 1.249 0 0 0-1.768 0 1.249 1.249 0 1 0 1.768 0ZM32 34.5a3.754 3.754 0 0 0-3.75 3.75A3.754 3.754 0 0 0 32 42a3.754 3.754 0 0 0 3.75-3.75A3.754 3.754 0 0 0 32 34.5Zm0 5c-.69 0-1.25-.56-1.25-1.25S31.31 37 32 37s1.25.56 1.25 1.25-.56 1.25-1.25 1.25Z"/><path d="M32 28.25a9.917 9.917 0 0 0-4.015.84 1.25 1.25 0 0 0 1.006 2.288A7.433 7.433 0 0 1 32 30.75c4.136 0 7.5 3.364 7.5 7.5s-3.364 7.5-7.5 7.5-7.5-3.364-7.5-7.5v-.127a1.25 1.25 0 1 0-2.498-.058 7.619 7.619 0 0 0-.002.185c0 5.514 4.486 10 10 10s10-4.486 10-10-4.486-10-10-10ZM32 9.5c-.69 0-1.25.56-1.25 1.25v7.5a1.25 1.25 0 1 0 2.5 0v-7.5c0-.69-.56-1.25-1.25-1.25ZM18.035 18.767l-5.302-5.302a1.25 1.25 0 0 0-1.768 1.768l5.302 5.302a1.25 1.25 0 1 0 1.768-1.768ZM53.035 13.465a1.25 1.25 0 0 0-1.768 0l-5.302 5.302a1.25 1.25 0 0 0 1.768 1.768l5.302-5.302a1.25 1.25 0 0 0 0-1.768Z"/><path d="M63.687 38.464C55.747 29.474 43.956 22 32 22 20.043 22 8.252 29.476.313 38.464a1.25 1.25 0 0 0 1.874 1.655c.266-.302.54-.602.815-.901C9.18 48.551 20.377 54.5 32 54.5c11.623 0 22.82-5.949 28.998-15.282.276.299.549.6.815.9a1.25 1.25 0 0 0 1.874-1.654ZM32 52c-10.99 0-21.559-5.71-27.211-14.623C9.242 33.014 19.533 24.5 32 24.5c12.468 0 22.758 8.514 27.211 12.877C53.56 46.29 42.99 52 32 52Z"/></g><defs><clipPath id="a"><path fill="#fff" d="M0 0h64v64H0z"/></clipPath></defs></svg>
